src/assets/svg/icons/fa/nuevos/classic/duotone/trash-can-plus classic duotone.svg

<svg xmlns="http://www.w3.org/2000/svg" viewBox="0 0 448 512"><!--! Font Awesome Pro 6.4.0 by @fontawesome - https://fontawesome.com License - https://fontawesome.com/license (Commercial License) Copyright 2023 Fonticons, Inc. --><defs><style>.fa-secondary{opacity:.4}</style></defs><path class="fa-primary" d="M135.2 17.7C140.6 6.8 151.7 0 163.8 0H284.2c12.1 0 23.2 6.8 28.6 17.7L320 32h96c17.7 0 32 14.3 32 32s-14.3 32-32 32H32C14.3 96 0 81.7 0 64S14.3 32 32 32h96l7.2-14.3zM200 376V312H136c-13.3 0-24-10.7-24-24s10.7-24 24-24h64V200c0-13.3 10.7-24 24-24s24 10.7 24 24v64h64c13.3 0 24 10.7 24 24s-10.7 24-24 24H248v64c0 13.3-10.7 24-24 24s-24-10.7-24-24z"/><path class="fa-secondary" d="M416 96H32V448c0 35.3 28.7 64 64 64H352c35.3 0 64-28.7 64-64V96zM200 376V312H136c-13.3 0-24-10.7-24-24s10.7-24 24-24h64V200c0-13.3 10.7-24 24-24s24 10.7 24 24v64h64c13.3 0 24 10.7 24 24s-10.7 24-24 24H248v64c0 13.3-10.7 24-24 24s-24-10.7-24-24z"/></svg>

<svg xmlns="http://www.w3.org/2000/svg" viewBox="0 0 448 512"><defs><style>.fa-secondary{opacity:.4}</style></defs><path class="fa-primary" d="M135.2 17.69C140.6 6.848 151.7 0 163.8 0H284.2C296.3 0 307.4 6.848 312.8 17.69L320 32H416C433.7 32 448 46.33 448 64C448 81.67 433.7 96 416 96H32C14.33 96 0 81.67 0 64C0 46.33 14.33 32 32 32H128L135.2 17.69zM199.1 376V312H135.1C122.7 312 111.1 301.3 111.1 288C111.1 274.7 122.7 264 135.1 264H199.1V200C199.1 186.7 210.7 176 223.1 176C237.3 176 248 186.7 248 200V264H312C325.3 264 336 274.7 336 288C336 301.3 325.3 312 312 312H248V376C248 389.3 237.3 400 223.1 400C210.7 400 199.1 389.3 199.1 376z"/><path class="fa-secondary" d="M416 448C416 483.3 387.3 512 352 512H96C60.65 512 32 483.3 32 448V96H416V448zM224 400C237.3 400 248 389.3 248 376V312H312C325.3 312 336 301.3 336 288C336 274.7 325.3 264 312 264H248V200C248 186.7 237.3 176 224 176C210.7 176 200 186.7 200 200V264H136C122.7 264 112 274.7 112 288C112 301.3 122.7 312 136 312H200V376C200 389.3 210.7 400 224 400z"/></svg>
